X: 1
T: Pierre's Right Arm
M: 4/4
L: 1/8
R: reel
K: Dmix
dA |: cAGA FD (3DDD | CD(3DDD FD(3DDD | B,DGA FD(3DDD | CDB,D A,2 dA |
cAGA FD (3DDD | CD(3DDD FD(3DDD | B,DGA BdcA| [1 GFDC D2 dA :| [2 GFDC D3 d |
|: cded cAGA | cAGA =FDDE | =F3 D G3 E | A3A Acd=f | 
a=fdA gecA | de=fe dcAc | d3e dcAG |[1 (3=FDD DC D3d :| [2 (3=FDD DC D4 ||
